X:371
T:Redwing
C:Arr. Willie McCranie
N:From "The Comando Sessions 1" Transcribed by Mike Stangeland
R:bluegrass
L:1/8
Q:1/4=231
M:4/4
K:G
z2 D2 vE2 vF2 |: "G"G2 GF GA Bc | d2 de dG AB | "C"cB ce g2 e2 | "G"d2 dd dd dd | 
"D"Bc Bc A2 GA | "G"Bc BA GF GB |1 A2 G2 F2 G2 | "D"AG FE D2 DF :|2 A"D"B AG FD EF | 
"G"G4 g2 g2 | "C"{^d}e4 c2 cc | Gc cd e2 g2 | "G"d2 dA B2 BB | B2 dd ed d2 | "D"d2 {=F}^FF FF FF | 
F2 dd ed de | "G"d2 G2 [gBGD][gBG] [g2B2G2] | [g2B2G2] B2 g2 B2 | {d}"C"ee ee c2 cc | 
Gc cd [g2e2] [g2e2] | "G"d2 dA B2 BB | BB de zd d2 | "D"d2 {=F}^FF FF FF | F2 cc BA EF | 
"G"G2 [GB,][GB,] z[GB,] [GB,][GB,] | [G4B,4] =F2 ^F2 | 
K:Bb
"Gm"G2 GA BA Bc | d2 de dc BA | "Cm"c2 cB f2 e2 | "Gm"d2 de dc Ac | "Cm"cd cB A2 GA | 
"Gm"Bc BA G2 _G=G | "A7"AB AG _G=G AG | "D7"GA Bc d2 d2 | "Gm"G2 GA BA Bc | d2 dd dc BA | 
"Cm"cB cd f2 e2 | "Gm"d2 de dc Ac | "Cm"cd cB A2 GA | "Gm"Bc BA G2 _G=G | "A7"A2 D2 "D7"_G2 A2 | 
"Gm"G2 G2 gf fe | "Cm"d2 c2 d2 e2 | g2 f2 e2 d2 | "Gm"d2 c2 BA z2 | G2 GA Bc d2 | 
"D7"c2 BA zG zF | _G2 GG GD FG | "Gm"G2 GA BA Bc | d2 d2 gf e2 | "Cm"d2 c2 d2 e2 | 
g2 f2 e2 d2 | "Gm"d2 c2 BA z2 | G2 GA Bc d2 | "D7"c2 BA zG zF | _G2 GG GD FG | 
"G"G2 [G=B,][G2B,2][GB,] [GB,][GB,] | [G8=B,8] | z8 | z8 | z8 | z8 | z8 | z8 | 
z8 | z8 | z8 | z8 | z8 | z8 | z8 | z8 | z8 | z8 | 


